X:1
T:Tangles
T:Tangles
T:Unknown; arr.
T:Unknown
T:PUBLIC DOMAIN
C:Unknown; arr.
Z:Unknown
Z:PUBLIC DOMAIN
%%score 1 ( 2 3 )
L:1/8
Q:1/4=100
M:4/4
K:Bb
V:1 treble nm="Treble"
V:2 bass nm="Bass"
V:3 bass 
V:1
 [DB]2 [FA]2 [EG]2 [DF]2 | [CE]3/2 [EA]/ [EA]3/2 [EG]/ [EA]4 | %2
w: Tan- gles, tan- gles,|tan- gles I was in;|
 [FA]3/2 [FA]/ [EG]3/2 [EG]/ [DF]3/2 [DF]/ [CE]3/2 [CE]/ | [B,D]3/2 [DF]/ [DF]3/2 [EG]/ [DF]3 | %4
w: I was born in Tan- gle town be-|cause of Ad- am’s sin;|
 [DF] | [DB]3/2 [DB]/ [FA]3/2 [FA]/ [EG]3/2 [EG]/ [DF]3/2 [DF]/ | %6
w: But|Je- sus came a- long the way and|
 [CE]3/2 [EA]/ [EA]3/2 [EG]/ [EA]4 | %7
w: un- did all the knots:|
 (3[FA] [FA] [FA] (3[EG] [EG] [EG] [DF]3/2 [EG]/ [FA]3/2 [FB]/ | [Ec]4 [DB]2 z2 |] %9
w: Now I’m so hap- py be- cause I’m not in|tan- gles!|
V:2
 [B,,B,]2 [F,C]2 [E,B,]2 [D,B,]2 | [C,A,]3/2 [F,A,]/ [F,C]3/2 [F,C]/ [F,C]4 | %2
 [F,C]3/2 [F,C]/ [E,B,]3/2 [E,B,]/ [D,B,]3/2 [D,B,]/ [C,A,]3/2 [C,A,]/ | %3
 [B,,B,]3/2 [B,,B,]/ [B,,B,]3/2 [B,,B,]/ [B,,B,]3 | [B,,B,] | %5
 [B,,B,]3/2 [B,,B,]/ [F,C]3/2 [F,C]/ [E,B,]3/2 [E,B,]/ [D,B,]3/2 [D,B,]/ | %6
 [C,A,]3/2 [F,A,]/ [F,C]3/2 [F,C]/ [F,C]4 | %7
 (3[F,C] [F,C] [F,C] (3[E,B,] [E,B,] [E,B,] [D,B,]3/2 [D,B,]/ [C,C]3/2 [C,C]/ | C4 [B,,B,]2 z2 |] %9
V:3
 x8 | x8 | x8 | x7 | x | x8 | x8 | x8 | (F,3/2 F,,/ G,,3/2 A,,/) z4 |] %9

